dist/img/icon-value.svg

<svg width="15" height="16" viewBox="0 0 15 16" fill="none" xmlns="http://www.w3.org/2000/svg">
<path d="M10.4761 3.44571C11.4188 3.827 12.226 4.48135 12.7942 5.32476C13.3623 6.16816 13.6655 7.16212 13.6646 8.17904C13.6654 9.1959 13.3623 10.1898 12.7941 11.0331C12.226 11.8765 11.4187 12.5308 10.4761 12.912V13.9768C11.6962 13.5749 12.7583 12.798 13.5108 11.7569C14.2633 10.7158 14.6678 9.46363 14.6665 8.17904C14.6665 5.47466 12.9107 3.17904 10.4761 2.3779V3.44571ZM10.4761 5.95961C10.7969 6.23358 11.0543 6.57398 11.2306 6.95726C11.4069 7.34054 11.4978 7.75754 11.497 8.17942C11.4978 8.60125 11.407 9.01821 11.2307 9.40144C11.0544 9.78467 10.7969 10.125 10.4761 10.3988V11.4823C11.6151 10.8228 12.3808 9.59047 12.3808 8.17942C12.3811 7.51016 12.2052 6.85261 11.8709 6.27285C11.5365 5.69309 11.0555 5.21153 10.4761 4.87656V5.95961ZM1.71415 11.2301H4.76177L8.19034 15.4263C8.57129 15.9748 9.46272 15.9333 9.71415 15.3112V1.07809C9.40519 0.456373 8.59453 0.406468 8.19034 0.932563L4.76177 5.14323H1.71415C0.738527 5.14323 0.571289 5.31885 0.571289 6.27237V10.0865C0.571289 11.0168 0.761765 11.2301 1.71415 11.2301Z" fill="#A9BBBE"/>
</svg>

<svg width="15" height="16" viewBox="0 0 15 16" fill="none" xmlns="http://www.w3.org/2000/svg"><path d="M10.476 3.446a5.102 5.102 0 013.189 4.733 5.1 5.1 0 01-3.189 4.733v1.065a6.099 6.099 0 004.19-5.798c0-2.704-1.755-5-4.19-5.801v1.068zm0 2.514a2.912 2.912 0 011.021 2.22 2.91 2.91 0 01-1.02 2.219v1.083a3.812 3.812 0 001.394-5.21 3.814 3.814 0 00-1.395-1.395V5.96zm-8.762 5.27h3.048l3.428 4.196c.381.549 1.273.507 1.524-.115V1.078A.894.894 0 008.19.933l-3.428 4.21H1.714c-.975 0-1.143.176-1.143 1.13v3.813c0 .93.19 1.144 1.143 1.144z" fill="#A9BBBE"/></svg>
